assets/img/icons/duotone-icons/Files/Download.svg

<?xml version="1.0" encoding="UTF-8"?>
<svg width="24px" height="24px" viewBox="0 0 24 24" version="1.1" xmlns="http://www.w3.org/2000/svg" xmlns:xlink="http://www.w3.org/1999/xlink">
    <!-- Generator: Sketch 52.2 (67145) - http://www.bohemiancoding.com/sketch -->
    <title>Stockholm-icons / Files / Download</title>
    <desc>Created with Sketch.</desc>
    <g id="Stockholm-icons-/-Files-/-Download" stroke="none" stroke-width="1" fill="none" fill-rule="evenodd">
        <rect id="bound" x="0" y="0" width="24" height="24"></rect>
        <path d="M2,13 C2,12.5 2.5,12 3,12 C3.5,12 4,12.5 4,13 C4,13.3333333 4,15 4,18 C4,19.1045695 4.8954305,20 6,20 L18,20 C19.1045695,20 20,19.1045695 20,18 L20,13 C20,12.4477153 20.4477153,12 21,12 C21.5522847,12 22,12.4477153 22,13 L22,18 C22,20.209139 20.209139,22 18,22 L6,22 C3.790861,22 2,20.209139 2,18 C2,15 2,13.3333333 2,13 Z" id="Path-57" fill="#335EEA" opacity="0.3"></path>
        <rect id="Rectangle" fill="#335EEA" opacity="0.3" transform="translate(12.000000, 8.000000) rotate(-180.000000) translate(-12.000000, -8.000000) " x="11" y="1" width="2" height="14" rx="1"></rect>
        <path d="M7.70710678,15.7071068 C7.31658249,16.0976311 6.68341751,16.0976311 6.29289322,15.7071068 C5.90236893,15.3165825 5.90236893,14.6834175 6.29289322,14.2928932 L11.2928932,9.29289322 C11.6689749,8.91681153 12.2736364,8.90091039 12.6689647,9.25670585 L17.6689647,13.7567059 C18.0794748,14.1261649 18.1127532,14.7584547 17.7432941,15.1689647 C17.3738351,15.5794748 16.7415453,15.6127532 16.3310353,15.2432941 L12.0362375,11.3779761 L7.70710678,15.7071068 Z" id="Path-102" fill="#335EEA" transform="translate(12.000004, 12.499999) rotate(-180.000000) translate(-12.000004, -12.499999) "></path>
    </g>
</svg>

<svg width="24" height="24" viewBox="0 0 24 24" xmlns="http://www.w3.org/2000/svg"><g fill="none" fill-rule="evenodd"><path d="M0 0h24v24H0z"/><path d="M2 13c0-.5.5-1 1-1s1 .5 1 1v5a2 2 0 002 2h12a2 2 0 002-2v-5a1 1 0 012 0v5a4 4 0 01-4 4H6a4 4 0 01-4-4v-5z" fill="#335EEA" opacity=".3"/><rect fill="#335EEA" opacity=".3" transform="rotate(-180 12 8)" x="11" y="1" width="2" height="14" rx="1"/><path d="M16.293 9.293a1 1 0 111.414 1.414l-5 5a1 1 0 01-1.376.036l-5-4.5a1 1 0 111.338-1.486l4.295 3.865 4.329-4.33z" fill="#335EEA"/></g></svg>
